!!!!SEGMENT: pl-wtm--r-1500_stefani-jozef-sielanka.krn
!!!id: 18xx:2232
!!!COM: Stefani, Józef
!!!OTL: Sielanka
!!!PDT:
!!!SMS-siglum: PL-Wtm
!!!SMS-shelfmark: R 1500
!!!SMS-variant:
!!!SMS-altvar:
!!!NIFC-rismID: 1001120234
!!!OMD: Allegretto.
!!!system-decoration: s1{(s2,s3)}
**kern	**kern	**dynam	**kern	**text	**text	**text
*part2	*part2	*part2	*part1	*part1	*part1	*part1
*staff3	*staff2	*	*staff1	*staff1	*staff1	*staff1
*	*I"Piano	*	*I"[Soprano]	*	*	*
*	*I'pf	*	*I'[S.]	*	*	*
*clefF4	*clefG2	*	*clefG2	*	*	*
*k[f#]	*k[f#]	*	*k[f#]	*	*	*
*M6/8	*M6/8	*	*M6/8	*	*	*
*>[A,A,A]	*>[A,A,A]	*	*>[A,A,A]	*	*	*
*^	*	*	*	*	*	*
*>A	*>A	*>A	*	*>A	*	*	*
!!LO:TX:a:t=P:problem:all\right:global
!	!	!	!	!LO:TX:a:Bi:t=Sielanka. wiersz Mirona \nmuzyka Stefaniego.	!	!	!
!	!	!	!LO:DY:b:rj	!	!	!	!
4.D#X/	8D#\L	(>16b\LL	f	4r	.	.	.
.	.	16dd#X\	.	.	.	.	.
.	8B 8A 8F#\	16ff#\)	.	.	.	.	.
.	.	16b\J	.	.	.	.	.
.	8BJ 8A 8F#\	8bb\J	.	8r	.	.	.
=1	=1	=1	=1	=1	=1	=1	=1
4.E/	8E\L	(>16dd#X\LL	.	2.r	.	.	.
.	.	16ee\	.	.	.	.	.
.	8B 8G\	16gg\	.	.	.	.	.
.	.	16bb\J)	.	.	.	.	.
.	8BJ 8G\	8eee\J	.	.	.	.	.
4.C#X/	8C#\L	(>16a\LL	.	.	.	.	.
.	.	16cc#X\	.	.	.	.	.
.	8A 8G 8E\	16ee\)	.	.	.	.	.
.	.	16a\J	.	.	.	.	.
.	8AJ 8G 8E\	8aa'>\J	.	.	.	.	.
=2	=2	=2	=2	=2	=2	=2	=2
4.D/	8D\L	(>16cc#X\LL	.	2.r	.	.	.
.	.	16dd\	.	.	.	.	.
.	8A 8F#\	16ff#\	.	.	.	.	.
.	.	16aa\J)	.	.	.	.	.
.	8AJ 8F#\	8ddd'>\J	.	.	.	.	.
4.C/	8C\L	8ee'>\L	.	.	.	.	.
.	8A 8E\	(>16ddd\L	.	.	.	.	.
.	.	16ccc\J)	.	.	.	.	.
.	8AJ 8E\	8aa'>\J	.	.	.	.	.
=3	=3	=3	=3	=3	=3	=3	=3
4.D/	8D\L	8dd'>\L	.	2.r	.	.	.
.	8B 8G\	(>16ccc\L	.	.	.	.	.
.	.	16bb\	.	.	.	.	.
.	8BJ 8G\	16gg\	.	.	.	.	.
.	.	16dd\JJ)	.	.	.	.	.
!	!	!	!LO:DY:b:rj	!	!	!	!
8cL 8A 8D\	8ryy	(>16cc#X\LL	f	.	.	.	.
.	.	16dd\	.	.	.	.	.
8c 8A 8D\	4ryy	16dd#X\	.	.	.	.	.
.	.	16ee\	.	.	.	.	.
8cJ 8A 8D\	.	16ee#X\	.	.	.	.	.
.	.	16ff#\JJ)	.	.	.	.	.
*v	*v	*	*	*	*	*	*
=	=	=	=	=	=	=
4B 4G\	4gg\	.	4r	.	.	.
8r	8r	.	8r	.	.	.
!!LO:LB:g=original
=4||	=4||	=4||	=4||	=4||	=4||	=4||
*	*	*	*2\right	*	*	*
4r	4r	.	8g/	1.) By-	2.) Szli-	3.) Tyś
.	.	.	8a/	-ło	-śmy	mi
8r	8r	.	8b/	to	sa-	nie
=5	=5	=5	=5	=5	=5	=5
!	!	!LO:DY:b:rj	!	!	!	!
4G 4GG\	4g 4B/	p	4g/	w kwie-	-mo-	br-
8G 8GG\	8d 8B/	.	8d/	-tniu	-tni!	-nił,
4G 4GG\	4e 4c/	.	(<4e/	w nie-	w mil-	a-
8G 8GG\	8f# 8d 8c/	.	8f#/)	.	.	.
=6	=6	=6	=6	=6	=6	=6
8GL 8GG\	8gL 8d 8B/	.	8g/	-dzie-	-cze-	-nie-
8GJ 8GG\	8dJ 8B/	.	8d/	-le	-niu	-le
8r	8r	.	8r	.	.	.
4F# 4FF#/	4dd 4d/	.	8dd\	O	Po	Ca-
.	.	.	8dd\	.	brze-	-ło-
8F# 8FF#/	8a 8d/	.	8a/	szczę-	-gu	-wać
=7	=7	=7	=7	=7	=7	=7
4.G 4.GG/	4.b 4.g 4.d/	.	4b/	-ścia	rze-	o-
.	.	.	8b/	ra-	-ki,	-czów...
4r	4r	.	(<16b/LL	-ju!	Ptak	By-
.	.	.	32cc/L	W o-	.	.
.	.	.	32b/JJJ)	.	.	.
.	.	.	8a#X/	-czach	ja-	-ło
8r	8r	.	8b/	twych	-kiś	to
=8	=8	=8	=8	=8	=8	=8
4C#X 4CC#X/	(<4a 4e 4A'</	.	(>4a/	lśni-	śpie-	w kwie-
8C# 8CC#/	8g 8e 8A'</	.	8g/)	.	.	.
4C# 4CC#/	4e 4A'</	.	4e/	-ło	-wał	-tniu
8C# 8CC#/	8a 8e 8A'</)	.	8a/	we-	w olch	w nie -
!!LO:LB:g=original
=9	=9	=9	=9	=9	=9	=9
8DL 8DD/	8f#L 8d 8A/	.	8f#/	-se-	cie-	-dzie-
8DJ 8DD/	8aJ 8f# 8d/	.	8a/	-le,	-niu	-lę,
8r	8r	.	8r	.	.	.
4B 4BB\	4dd 4f# 4d/	.	(>16dd\LL	Ja-	Pi-	Jak
.	.	.	16cc#X\)	.	.	.
.	.	.	16b\	.	.	.
.	.	.	16a\JJ	.	.	.
8B 8BB\	8f# 8d/	.	(<16g/LL	-sne	.	gdy-
.	.	.	16f#/JJ)	.	.	.
=10	=10	=10	=10	=10	=10	=10
*	*^	*	*^	*	*	*
4G 4GG\	4e 4d 4B/	4ryy	.	4e/	4ryy	łzy	-snkę	-by
8r	8r	8ryy	.	8r	8ryy	.	.	.
.	(<32qqf#/LLL	.	.	.	.	.	.	.
.	32qqe/	.	.	.	.	.	.	.
.	32qqd#X/JJJ	.	.	.	.	.	.	.
4r	8e/L)	4.e\	.	8e/L	8e\	Ja-	Pio-	Jak-
.	8cc#X/	.	.	8cc#X/J	8cc#\	.	snkę	.
8r	8b/J	.	.	8b/	8b\	-sne	ra-	-gdy-
=11	=11	=11	=11	=11	=11	=11	=11	=11
!	!	!	!	!	!LO:TX:a:t=P:note position:problem	!	!	!
8A 8AA\	8a/	8f#\	.	8a/	2.a\	łzy	-do-	-by
8r	8r	8ryy	.	8r	.	.	.	.
!	!LO:TUP:a:problem:klamra łukowa	!	!	!	!	!	!	!
8r	24bb\LL	2ryy	.	8r	.	.	.	.
.	24aa\	.	.	.	.	.	.	.
.	24gg#X\JJ	.	.	.	.	.	.	.
4r	4aa\	.	f	4.a/	.	w o-	.	w ma-
8A 8AA\	8cc#X 8a 8g 8e/	.	.	.	.	.	.	.
*	*v	*v	*	*	*	*	*	*
*	*	*	*v	*v	*	*	*
=12	=12	=12	=12	=12	=12	=12
4D 4DD/	4dd 4a 4f# 4d/	.	4d/	-czach,	-sną:	-ju,
8r	8r	.	8r	.	.	.
4r	4r	.	8d/	Bia-	Że	W bie-
.	.	.	8e/	-łą	na-	-li
8r	8r	.	8d/	su-	-sza	i
=13	=13	=13	=13	=13	=13	=13
*	*	*	*^	*	*	*
!	!	!LO:DY:b:rj	!	!	!	!	!
4D 4DD/	4a 4f# 4d 4c/	p	4cc\	4ryy	-ken-	mi-	z ró-
8r	8r	.	8a/	8ryy	-kę	-łość	-żą
4D 4DD/	4g 4d 4B/	.	16b/	8b\	mi-	trwać	z ró-
.	.	.	16b/	.	-łaś	bę-	.
.	.	.	8a/	8a\	jak-	-dzie	-żą
8r	8r	.	8g/	8g\	-by	przez	w war-
!!LO:LB:g=original
*	*	*	*v	*v	*	*	*
=14	=14	=14	=14	=14	=14	=14
4D 4DD/	4f# 4d 4A/	.	4a/	w ma-	wie-	-ko-
8r	8r	.	8d/	-ju	-ki	-czach.
4C 4CC/	8r	.	(>32f#/LLL	ró-	że	Stra-
.	.	.	32e/	.	.	.
.	.	.	32d#X/	.	.	.
.	.	.	32e/JJJ)	.	.	.
.	8aL 8c/	.	8cc\	-żę	ży-	-co-
8r	8eJ 8c/	.	8a/	w war-	-cie	-ny
=15	=15	=15	=15	=15	=15	=15
4D 4DD/	8r	.	>(4b\	-ko-	wio-	ra-
.	8gL 8B/	.	.	.	.	.
8r	8dJ 8B/	.	8dd\	.	.	.
4D 4DD/	8r	.	8.ee\L	.	.	.
.	8f#L 8d 8c/	.	.	.	.	.
.	.	.	16dd\L	.	.	.
8r	8f#J 8d 8c/	.	16cc\	.	.	.
.	.	.	16a\JJ)	.	.	.
=16	=16	=16	=16	=16	=16	=16
*^	*	*	*	*	*	*
4G\	4GG\	4g 4d 4B/	.	4g/	-czach.	-sną...	-ju!
8r	8ryy	8r	.	8r	.	.	.
4.C/	8C\L	8ee'>\L	.	4r	.	.	.
.	8A 8E\	(>16ddd\L	.	.	.	.	.
.	.	16ccc\J)	.	.	.	.	.
.	8AJ 8E\	8aa'>\J	.	8r	.	.	.
=17	=17	=17	=17	=17	=17	=17	=17
4.D/	8D\L	8dd'>\L	.	2.r	.	.	.
.	8B 8G\	(>16ccc\L	.	.	.	.	.
.	.	16bb\	.	.	.	.	.
.	8BJ 8G\	16gg\	.	.	.	.	.
.	.	16dd\JJ)	.	.	.	.	.
!	!	!	!LO:DY:b:rj	!	!	!	!
8cL 8A 8D\	8ryy	(>16cc#X\LL	f	.	.	.	.
.	.	16dd\	.	.	.	.	.
8c 8A 8D\	4ryy	16dd#X\	.	.	.	.	.
.	.	16ee\	.	.	.	.	.
8cJ 8A 8D\	.	16ee#X\	.	.	.	.	.
.	.	16ff#\JJ)	.	.	.	.	.
*v	*v	*	*	*	*	*	*
=18	=18	=18	=18	=18	=18	=18
4B 4G\	4gg\	.	4r	.	.	.
!	!	!	!LO:TX:a:Bi:t=[segno]:problem:znak segno nad kreską taktową; dotyczy całej partytury [3 zwrotki]	!	!	!
8r	8r	.	8r	.	.	.
==	==	==	==	==	==	==
*-	*-	*-	*-	*-	*-	*-
!!title: @{OTL};
!!!RDF**kern: > = above
!!!RDF**kern: < = below
!!!RDF**kern: | = vertical stroke
!!!RDF**kern: N = linked
!!!RDF**kern: i = editorial accidental
!!!ENC: Andrzej Gręziak
!!!END: 2021-05-20
!!!EED: Wojciech Jakubiak-Danek
!!!EST: 2021-07-04
!!!URL-scan: http://repozytorium.nifc.pl/skany/pl-wtm-nut--r1499--r1500
!!!ONB-nifc: UWAGA: w zbiorze: 1. Oj, nie to, to! (Powiedz dziewczę na Boga!), 2. Sielanka
